X:496
T: DER ABEND SCHLEIERT FLUR UND HAIN
N: F0942
O: Europa, Mitteleuropa, Deutschland
R: Liebes - Lied
M: 3/4
L: 1/16
K: A
E4 | c8B4 | A8E4 | F6A2G2B2 | A8
A4 | B6c2A4 | B6c2A4 | e4d4c4 | B8
B2c2 | d8d4 | c4B4c2d2 | f2e2d4c4 | c8
c3B | B4f4f4 | f4e4A4 | B4d4G4 | A8

@@@ Tune index: 5927
